shader_type canvas_item;

uniform sampler2D gradient;

//void vertex() {
	//vec2 vert = VERTEX;
	//if (VERTEX.g < 0.0) {
		//vert.x += sin(TIME) * 100.0;
	//}
	 //
	//VERTEX = vert;
//}

void fragment() {
	//vec4 pixelColor = texture(TEXTURE, UV);
	//float brightness = (pixelColor.r + pixelColor.g + pixelColor.b) / 3.0;
	//vec4 gradientColor = texture(gradient, vec2(brightness));
	//
	//COLOR = gradientColor;
}
